X:1
T:Wacht Auf
T:Wacht Auf
T:Sleepers, Awake
T:J. S. Bach
T:Sheet Music from 8notes.com, Copyright 2008 Red Balloon Technology Ltd
T:Sheet Music from 8notes.com, Copyright 2008 Red Balloon Technology Ltd
T:Sheet Music from 8notes.com, Copyright 2008 Red Balloon Technology Ltd
T:Sheet Music from 8notes.com, Copyright 2008 Red Balloon Technology Ltd
T:Sheet Music from 8notes.com, Copyright 2008 Red Balloon Technology Ltd
C:J. S. Bach
Z:Sheet Music from 8notes.com, Copyright 2008 Red Balloon Technology Ltd
%%score 1 2 3
L:1/8
Q:1/4=90
M:4/4
K:Eb
V:1 treble nm="Flute" snm="Fl."
V:2 treble transpose=-2 nm="B♭ Clarinet" snm="B♭ Cl."
V:3 bass nm="Violoncello" snm="Vc."
V:1
 B | e/f/g gf agBA | g/e/f AG de z B | e/f/g gf agBA | g/e/f AG de z b | %5
 b2 (a/g/f/e/) f/e/d/c/ Bc/d/ | e/f/g/f/ a/g/f/e/ gf z B | g =a2 b{/f} e/d/e z c | %8
 =a b2 c'{/f} e/d/e z e' | d'/c'/b b/=a/(b b/)a/g/f/ d2- | d2{/f} e/d/(e e/)=a/b/c'/ b/a/g/f/ | %11
 bf dc/B/ B/e/d/c/ dB/>=A/ | G>=A B3/2G/4=A/4 B2 z B | e/f/g gf agBA | g/e/f AG de z B | %15
 e/f/g gf agBA | g/e/f AG de z f | g =a2 b{/f} e/d/e z c | =a b2 c'{/g} f/e/f z2 | %19
 z2 z b b2 a/g/f/e/ | f/e/d/c/ Bc/d/ e/f/g/f/ a/g/f/e/ | gf z2 z2 z B | e/f/g gf agBA | %23
 gf z2 z2 z b | b2 a/g/f/e/ f/e/d/c/ Bc/d/ | e/f/g/f/ a/g/f/e/ gf z B | g =a2 b{/f} e/d/e z c | %27
 =a b2 c'{/f} e/d/e z e' | d'/c'/b b/=a/(b b/)a/g/f/ e/d/c/B/ | %29
 c/d/e{/f} e/d/(e e/)=a/b/c'/ b/a/g/f/ | bf dc/B/ B/e/d/c/ dB/>=A/ | G>=A B3/2G/4=A/4 B2 z d | %32
 e f2 g B/A/B z b | b2 a/g/f/e/ f/e/d/c/ Bc/d/ | e/f/g/f/ a/g/f/e/ gf z2 | z2 z g c'/d'/e' e'd' | %36
 f'e'gf e'/c'/d' fe | =bc' z g g2 f/e/d/c/ | d/c/=B/=A/ GA/B/ c/d/e/d/ f/e/d/c/ | ed z G e ^f2 g | %40
{/d} c/B/c z =A ^f g2 =a |{/d} c/B/c z c' b/=a/(g g/)^f/(g | g/)f/e/d/ c/B/=A/G/ A/B/(c c/)B/(c | %43
 c/)^f/g/=a/ g/f/=e/d/ gd B=A/G/ | G2 z2 z2 z B | e/f/g gf agBA | g/e/f AG de z2 | %47
 z2 z b b2 a/g/f/e/ | f/e/d/c/ Bc/d/ e/f/g/f/ a/g/f/e/ | gf z e c' d'2 e' | a/g/a z c' d' e'2 f' | %51
{/b} a/g/a z f g/f/(e e/)d/(e | e/)_d'/c'/b/ a/g/f/e/ f/g/(a a/)g/(a | %53
 a/)d/e/f/ e/d/c/B/ be g/f/e/f/ | e/a/g/f/ ge/>d/ c>d d>e | e8 |] %56
V:2
[K:F] c | f/g/a ag bacB | a/f/g BA ef z c | f/g/a ag bacB | a/f/g BA ef z c' | %5
 c'2 (b/a/g/f/) g/f/e/d/ cd/e/ | f/g/a/g/ b/a/g/f/ ag z c | a =b2 c'{/g} f/e/f z d | %8
 =b c'2 d'{/g} f/e/f z f' | e'/d'/c' c'/=b/(c' c'/)b/a/g/ e2- | %10
 e2{/g} f/e/(f f/)=b/c'/d'/ c'/b/a/g/ | c'g ed/c/ c/f/e/d/ ec/>=B/ | A>=B c3/2A/4=B/4 c2 z c | %13
 f/g/a ag bacB | a/f/g BA ef z c | f/g/a ag bacB | a/f/g BA ef z g | a =b2 c'{/g} f/e/f z d | %18
 =b c'2 d'{/a} g/f/g z2 | z2 z c' c'2 b/a/g/f/ | g/f/e/d/ cd/e/ f/g/a/g/ b/a/g/f/ | ag z2 z2 z c | %22
 f/g/a ag bacB | ag z2 z2 z c' | c'2 b/a/g/f/ g/f/e/d/ cd/e/ | f/g/a/g/ b/a/g/f/ ag z c | %26
 a =b2 c'{/g} f/e/f z d | =b c'2 d'{/g} f/e/f z f' | e'/d'/c' c'/=b/(c' c'/)b/a/g/ f/e/d/c/ | %29
 d/e/f{/g} f/e/(f f/)=b/c'/d'/ c'/b/a/g/ | c'g ed/c/ c/f/e/d/ ec/>=B/ | A>=B c3/2A/4=B/4 c2 z e | %32
 f g2 a c/B/c z c' | c'2 b/a/g/f/ g/f/e/d/ cd/e/ | f/g/a/g/ b/a/g/f/ ag z2 | z2 z a d'/e'/f' f'e' | %36
 g'f'ag f'/d'/e' gf | ^c'd' z a a2 g/f/e/d/ | e/d/^c/=B/ AB/c/ d/e/f/e/ g/f/e/d/ | fe z A f ^g2 a | %40
{/e} d/c/d z =B ^g a2 =b |{/e} d/c/d z d' c'/=b/(a a/)^g/(a | a/)g/f/e/ d/c/=B/A/ B/c/(d d/)c/(d | %43
 d/)^g/a/=b/ a/g/^f/e/ ae c=B/A/ | A2 z2 z2 z c | f/g/a ag bacB | a/f/g BA ef z2 | %47
 z2 z c' c'2 b/a/g/f/ | g/f/e/d/ cd/e/ f/g/a/g/ b/a/g/f/ | ag z f d' e'2 f' | %50
 b/a/b z d' e' f'2 g' |{/c'} b/a/b z g a/g/(f f/)e/(f | f/)_e'/d'/c'/ b/a/g/f/ g/a/(b b/)a/(b | %53
 b/)e/f/g/ f/e/d/c/ c'f a/g/f/g/ | f/b/a/g/ af/>e/ d>e e>f | f8 |] %56
V:3
 z | E,,2 E,,2 E,,2 G,,2 | A,,2 B,,2 E,,2 z2 | E,,2 E,,2 E,,2 G,,2 | A,,2 B,,2 E,,2 z2 | %5
 G,,2 C,2 B,,2 A,,2 | G,,2 E,,2 B,,2 D,2 | E,2 D,2 C,2 E,2 | F,2 G,2 =A,2 F,2 | B,2 =A,2 G,2 F,2 | %10
 E,2 D,2 C,2 E,2 | D,B,,F,F,, G,,=A,,B,,D,, | E,,C,, F,,2 B,,C,B,,A,, | G,,F,,E,,D,, C,,2 C,2 | %14
 G,,2 B,,2 E,,2 G,,2 | A,,2 A,2 D,2 E,2 | C,2 D,2 E,2 D,2 | C,2 G,,2 C,D, E,2 | %18
 E,D,G,,=A,, B,,D,,E,,F,, | B,,=A,,B,,C, D,B,, E,2 | B,,2 A,,2 G,,2 E,,2 | A,,B,, C,2 F,,2 B,,A,, | %22
 G,,2 E,2 D,2 E,2 | A,,B,, C,2 F,,2 B,,A,, | G,,2 C,2 B,,2 A,,2 | G,,2 E,,2 B,,2 D,2 | %26
 E,2 D,2 C,2 E,2 | F,2 G,2 =A,2 F,2 | B,2 =A,2 G,2 F,2 | E,2 D,2 C,2 E,2 | %30
 D,B,,F,F,, G,,=A,,B,,D,, | E,,C,, F,,2 B,,C,B,,A,, | G,,F,,E,,D,, E,,G,,A,,B,, | %33
 C,D, E,2 B,,2 A,,2 | G,,2 E,,2 B,,C,D,B,, | E,D,C,=B,, C,G,CB, | A,2 E,2 F,2 G,2 | %37
 A,G,F,=E, F,_E,D,C, | =B,,G,,G,F, E,2 C,2 | G,2 =B,2 C2 _B,2 | =A,2 C,2 D,2 E,2 | %41
 _G,,2 D,,2 =G,,2 F,,2 | E,2 D,2 C,2 B,,2 | =A,,2 C,2 B,,G,,D,D,, | G,,E,,F,,G,, A,,G,,A,,B,, | %45
 C,B,,C,D, E,2 C,2 | A,,2 B,,2 C,B,,C,D, | E,D,E,F, G,F,G,A, | D,B,,B,A, G,2 E,2 | %49
 B,A, G,2 A,2 G,2 | F,2 E,2 F,2 B,,2 | C,2 A,,2 B,,2 G,,2 | A,,G,,F,,E,, D,,2 F,,2 | %53
 B,,C,B,,A,, G,,C,A,,B,, | C,D,E,G, A,F,B,B,, | E,,8 |] %56

